build/img/svg/transport-icon1.svg

<svg width="44" height="48" viewBox="0 0 44 48" stroke="none" xmlns="http://www.w3.org/2000/svg">
<g clip-path="url(#clip0)">
<path stroke="none" d="M43.5945 15.9319C43.341 13.4809 41.5161 10.2638 39.5899 8.78298C39.5899 8.78298 36.6498 6.58723 33 4.44255C29.3502 2.24681 26.0046 0.765957 26.0046 0.765957C24.8894 0.255319 23.4194 0 22 0C20.53 0 19.0599 0.255319 17.9954 0.765957C17.9954 0.765957 14.7005 2.24681 11 4.44255C7.35023 6.6383 4.41014 8.78298 4.41014 8.78298C2.43318 10.2638 0.658986 13.4809 0.40553 15.9319C0.40553 15.9319 0 19.6085 0 24C0 28.3404 0.40553 32.0681 0.40553 32.0681C0.658986 34.5191 2.48387 37.7362 4.41014 39.217C4.41014 39.217 7.35023 41.4128 11 43.6085C14.6498 45.8043 17.9954 47.2851 17.9954 47.2851C19.1106 47.7957 20.5806 48.0511 22 48.0511C23.47 48.0511 24.9401 47.7957 26.0046 47.2851C26.0046 47.2851 29.2995 45.8043 33 43.6085C36.6498 41.4128 39.5899 39.217 39.5899 39.217C41.5668 37.7362 43.341 34.5191 43.5945 32.0681C43.5945 32.0681 44 28.3915 44 24C44 19.6596 43.5945 15.9319 43.5945 15.9319ZM41.5668 31.8128C41.3641 33.7532 39.8433 36.4085 38.3733 37.5319C38.3226 37.5319 35.4839 39.6766 31.9862 41.7702C28.4885 43.8638 25.2442 45.3447 25.1935 45.3447C24.3825 45.7021 23.2166 45.9064 22 45.9064C20.7834 45.9064 19.6175 45.7021 18.8064 45.3447C18.7558 45.3447 15.5622 43.8638 12.0138 41.7702C8.51613 39.6766 5.62673 37.5319 5.62673 37.5319C4.10599 36.4085 2.63594 33.7021 2.43318 31.8128C2.38249 31.8128 2.02765 28.1872 2.02765 24C2.02765 19.8128 2.38249 16.1872 2.38249 16.1872C2.58525 14.2468 4.10599 11.5915 5.57604 10.4681C5.62673 10.4681 8.46544 8.3234 11.9631 6.22979C15.4608 4.13617 18.7051 2.65532 18.7558 2.65532C19.6175 2.24681 20.7834 2.04255 22 2.04255C23.2166 2.04255 24.3825 2.24681 25.1935 2.60426C25.2442 2.60426 28.4378 4.08511 31.9862 6.17872C35.4839 8.27234 38.3733 10.417 38.3733 10.417C39.894 11.5404 41.4147 14.2468 41.5668 16.1362C41.5668 16.1872 41.9217 19.7617 41.9217 23.9489C41.9723 28.1872 41.5668 31.8128 41.5668 31.8128Z"/>
<path stroke="none" d="M30.2132 13.583C28.5404 12.5617 21.8491 12.5617 21.7984 12.5617C21.7478 12.5617 15.0565 12.5617 13.3837 13.583C12.015 14.4 10.3929 17.9234 9.63255 20.834C8.82149 23.8979 9.42979 28.2894 9.63255 29.5149C9.68324 29.8723 9.83532 30.1277 10.1902 30.383V33.9064C10.1902 34.4681 10.6464 34.9277 11.204 34.9277H15.31C15.8676 34.9277 16.3238 34.4681 16.3238 33.9064V31.5574C18.1994 31.7106 20.227 31.8128 21.8491 31.8128C23.4713 31.8128 25.4989 31.7106 27.3745 31.5574V33.9064C27.3745 34.4681 27.8307 34.9277 28.3883 34.9277H32.4436C33.0012 34.9277 33.4574 34.4681 33.4574 33.9064V30.383C33.8123 30.1277 33.9643 29.8723 34.015 29.5149C34.2178 28.2383 34.8261 23.8979 34.015 20.834C33.204 17.9234 31.5819 14.4 30.2132 13.583ZM14.3975 15.3192C14.9551 14.9617 18.2501 14.6043 21.7984 14.6043C25.3468 14.6043 28.6418 15.0128 29.1994 15.3192C29.6049 15.5745 30.6694 17.3106 31.5312 19.6596C29.5542 19.2511 25.8031 18.5362 21.7984 18.5362C17.8445 18.5362 14.0427 19.2511 12.0657 19.6596C12.9275 17.3106 13.992 15.5745 14.3975 15.3192ZM14.2455 32.8851H12.1671V31.0468C12.7247 31.1489 13.4344 31.2511 14.2455 31.3532V32.8851ZM31.4298 32.8851H29.3514V31.3532C30.2132 31.2511 30.8722 31.1489 31.4298 31.0468V32.8851ZM32.0888 28.8C30.7708 29.2596 25.651 29.7702 21.7984 29.7702C17.9966 29.7702 12.8261 29.2596 11.5081 28.8C11.204 26.6553 11.0519 23.8979 11.4067 21.9064C12.3699 21.6511 16.9828 20.5787 21.7478 20.5787C26.5127 20.5787 31.1256 21.7021 32.0888 21.9064C32.545 23.8979 32.3929 26.6553 32.0888 28.8Z"/>
<path stroke="none" d="M29.3996 26.3489C30.2395 26.3489 30.9204 25.6631 30.9204 24.817C30.9204 23.971 30.2395 23.2851 29.3996 23.2851C28.5598 23.2851 27.8789 23.971 27.8789 24.817C27.8789 25.6631 28.5598 26.3489 29.3996 26.3489Z"/>
<path stroke="none" d="M14.1926 26.3489C15.0325 26.3489 15.7134 25.6631 15.7134 24.817C15.7134 23.971 15.0325 23.2851 14.1926 23.2851C13.3527 23.2851 12.6719 23.971 12.6719 24.817C12.6719 25.6631 13.3527 26.3489 14.1926 26.3489Z"/>
</g>
<defs>
<clipPath id="clip0">
<rect width="44" height="48" fill="white" stroke="none"/>
</clipPath>
</defs>
</svg>

<svg width="44" height="48" xmlns="http://www.w3.org/2000/svg"><g clip-path="url(#clip0)"><path d="M43.594 15.932c-.253-2.451-2.078-5.668-4.004-7.149 0 0-2.94-2.196-6.59-4.34C29.35 2.247 26.005.766 26.005.766 24.889.256 23.419 0 22 0c-1.47 0-2.94.255-4.005.766 0 0-3.295 1.48-6.995 3.677-3.65 2.195-6.59 4.34-6.59 4.34-1.977 1.48-3.75 4.698-4.004 7.149 0 0-.406 3.676-.406 8.068 0 4.34.406 8.068.406 8.068.253 2.451 2.078 5.668 4.004 7.149 0 0 2.94 2.196 6.59 4.392a71.16 71.16 0 006.995 3.676c1.116.51 2.586.766 4.005.766 1.47 0 2.94-.255 4.005-.766 0 0 3.294-1.48 6.995-3.676a88.995 88.995 0 006.59-4.392c1.977-1.48 3.751-4.698 4.004-7.149 0 0 .406-3.676.406-8.068 0-4.34-.406-8.068-.406-8.068zm-2.027 15.88c-.203 1.941-1.724 4.596-3.194 5.72-.05 0-2.89 2.145-6.387 4.238-3.498 2.094-6.742 3.575-6.793 3.575-.81.357-1.976.561-3.193.561s-2.383-.204-3.194-.561c-.05 0-3.244-1.481-6.792-3.575-3.498-2.093-6.387-4.238-6.387-4.238-1.521-1.123-2.991-3.83-3.194-5.72-.05 0-.405-3.625-.405-7.812s.354-7.813.354-7.813c.203-1.94 1.724-4.596 3.194-5.719.05 0 2.89-2.145 6.387-4.238 3.498-2.094 6.742-3.575 6.793-3.575.861-.408 2.027-.612 3.244-.612s2.383.204 3.194.561c.05 0 3.244 1.481 6.792 3.575a87.03 87.03 0 016.387 4.238c1.521 1.123 3.042 3.83 3.194 5.72 0 .05.355 3.625.355 7.812.05 4.238-.355 7.864-.355 7.864z"/><path d="M30.213 13.583c-1.673-1.021-8.364-1.021-8.415-1.021-.05 0-6.741 0-8.414 1.021-1.369.817-2.991 4.34-3.751 7.251-.812 3.064-.203 7.455 0 8.68.05.358.202.614.557.869v3.523a1.02 1.02 0 001.014 1.022h4.106a1.02 1.02 0 001.014-1.022v-2.349c1.875.154 3.903.256 5.525.256 1.622 0 3.65-.102 5.526-.256v2.35a1.02 1.02 0 001.013 1.02h4.056a1.02 1.02 0 001.013-1.02v-3.524c.355-.255.507-.51.558-.868.203-1.277.811-5.617 0-8.681-.811-2.91-2.433-6.434-3.802-7.251zm-15.816 1.736c.558-.357 3.853-.715 7.401-.715 3.549 0 6.844.409 7.401.715.406.255 1.47 1.992 2.332 4.34-1.977-.408-5.728-1.123-9.733-1.123-3.953 0-7.755.715-9.732 1.124.861-2.35 1.926-4.085 2.332-4.34zm-.152 17.566h-2.078v-1.838c.558.102 1.267.204 2.079.306v1.532zm17.185 0h-2.08v-1.532a32.877 32.877 0 002.079-.306v1.838zm.659-4.085c-1.318.46-6.438.97-10.29.97-3.802 0-8.973-.51-10.29-.97-.305-2.145-.457-4.902-.102-6.894.963-.255 5.576-1.327 10.34-1.327 4.766 0 9.379 1.123 10.342 1.327.456 1.992.304 4.75 0 6.894z"/><path d="M29.4 26.349c.84 0 1.52-.686 1.52-1.532s-.68-1.532-1.52-1.532-1.521.686-1.521 1.532.68 1.532 1.52 1.532zm-15.207 0c.84 0 1.52-.686 1.52-1.532s-.68-1.532-1.52-1.532-1.521.686-1.521 1.532.68 1.532 1.52 1.532z"/></g><defs><clipPath id="clip0"><path fill="#fff" d="M0 0h44v48H0z"/></clipPath></defs></svg>
